icons/superscript.svg

<svg xmlns="http://www.w3.org/2000/svg" width="24" height="24" fill="none"><g clip-path="url(#a)"><g><path fill="#121212" d="M5.596 5L10.5 10.928L15.404 5H18L11.798 12.497L18 19.994V20H15.41L10.5 14.066L5.59 20H3V19.994L9.202 12.497L3 5H5.596ZM21.55 6.58C21.6529 6.4823 21.7279 6.359 21.7675 6.22273C21.807 6.08647 21.8096 5.94215 21.7749 5.80456C21.7403 5.66697 21.6697 5.54107 21.5703 5.43977C21.471 5.33847 21.3465 5.2654 21.2096 5.22807C21.0727 5.19074 20.9284 5.19049 20.7914 5.22733C20.6544 5.26417 20.5296 5.33679 20.4299 5.43774C20.3302 5.53869 20.2592 5.66434 20.224 5.8018C20.1889 5.93926 20.191 6.0836 20.23 6.22L19.075 6.55C18.99 6.25217 18.9753 5.93867 19.0321 5.6342C19.0889 5.32973 19.2156 5.04259 19.4022 4.7954C19.5888 4.5482 19.8302 4.3477 20.1075 4.20968C20.3848 4.07165 20.6903 3.99988 21 4C21.4004 4.00006 21.7916 4.12029 22.1229 4.34515C22.4542 4.57 22.7104 4.88913 22.8583 5.26121C23.0062 5.63329 23.039 6.04121 22.9525 6.43215C22.866 6.82309 22.6641 7.17907 22.373 7.454L20.744 9H23V10H19V9L21.55 6.58Z"/></g></g><defs><clipPath id="a"><rect width="24" height="24" fill="white"/></clipPath></defs></svg>

<svg width="24" height="24" fill="none" xmlns="http://www.w3.org/2000/svg"><g clip-path="url(#a)"><path d="m5.596 5 4.904 5.928L15.404 5H18l-6.202 7.497L18 19.994V20h-2.59l-4.91-5.934L5.59 20H3v-.006l6.202-7.497L3 5h2.596ZM21.55 6.58a.8.8 0 1 0-1.32-.36l-1.155.33a2 2 0 1 1 3.298.904L20.744 9H23v1h-4V9l2.55-2.42Z" /></g><defs><clipPath id="a"><path fill="#fff" d="M0 0h24v24H0z"/></clipPath></defs></svg>
